!!!!SEGMENT: T649_Hin-w70p62h1m1-16.krn
!!!COM: Hindemith, Paul
!!!OTL: III: Lebhaft (Lively)
!!!AGN: Orchestral
!!!AGN-sub: Concerto
!!!CNT: German
!!!ODT: 1939
!!!OPR: Violin Concerto
!!!filename: T649_Hin-w70p62h1m1-16.krn
**kern	**dynam	**kern	**dynam	**kern	**dynam	**kern	**dynam	**kern	**dynam	**kern	**dynam	**kern	**dynam	**kern	**dynam	**kern	**dynam	**kern	**dynam	**kern	**dynam	**kern	**dynam
*grp:A	*	*grp:A	*	*grp:A	*	*grp:B	*	*grp:B	*	*grp:B	*	*grp:A	*	*grp:A	*	*grp:A	*	*grp:A	*	*grp:A	*	*grp:A	*
*part12	*	*part11	*	*part10	*	*part9	*	*part8	*	*part7	*	*part6	*	*part5	*	*part4	*	*part3	*	*part2	*	*part1	*
*staff12	*	*staff11	*	*staff10	*	*staff9	*	*staff8	*	*staff7	*	*staff6	*	*staff5	*	*staff4	*	*staff3	*	*staff2	*	*staff1	*
*I"Contrabass	*	*I"Violoncello	*	*I"Viola	*	*I"Violin II	*	*I"Violin I	*	*I"Solo Violin	*	*I"Triangle	*	*I"Bassoon 2	*	*I"Bassoon 1	*	*I"Bass Clarinet	*	*I"Clarinet in Bb 2	*	*I"Clarinet in Bb 1	*
*I'cb	*	*I'vc	*	*I'vla	*	*I'vn	*	*I'vn	*	*I'vn	*	*I'tri	*	*I'bn	*	*I'bn	*	*I'b-cl	*	*I'cl	*	*I'cl	*
*ICstr	*	*ICstr	*	*ICstr	*	*ICstr	*	*ICstr	*	*ICstr	*	*ICidio	*	*ICww	*	*ICww	*	*ICww	*	*ICww	*	*ICww	*
*Icbass	*	*Icello	*	*Iviola	*	*Ivioln	*	*Ivioln	*	*Ivioln	*	*Itrngl	*	*Ifagot	*	*Ifagot	*	*Iclarb	*	*Iclars	*	*Iclars	*
*	*	*	*	*	*	*	*	*	*	*	*	*stria5	*	*	*	*	*	*	*	*	*	*	*
*clefF4	*	*clefF4	*	*clefC3	*	*clefG2	*	*clefG2	*	*clefG2	*	*clefG2	*	*clefC4	*	*clefC4	*	*clefF4	*	*clefG2	*	*clefG2	*
*ITrd7c12	*	*	*	*	*	*	*	*	*	*	*	*	*	*	*	*	*	*ITrd1c2	*	*ITrd1c2	*	*ITrd1c2	*
*k[]	*	*k[]	*	*k[]	*	*k[]	*	*k[]	*	*k[]	*	*k[]	*	*k[]	*	*k[]	*	*k[0]	*	*k[b-e-]	*	*k[b-e-]	*
*	*	*	*	*	*	*	*	*	*	*	*	*C:	*	*	*	*	*	*	*	*	*	*	*
!!LO:TX:tempo:a:t=[Lebhaft]\n[[quarter]=152]
*M2/4	*	*M2/4	*	*M2/4	*	*M2/4	*	*M2/4	*	*M2/4	*	*M2/4	*	*M2/4	*	*M2/4	*	*M2/4	*	*M2/4	*	*M2/4	*
!!LO:REH:t=1
=12	=12	=12	=12	=12	=12	=12	=12	=12	=12	=12	=12	=12	=12	=12	=12	=12	=12	=12	=12	=12	=12	=12	=12
!	!LO:DY:ed=brack	!	!LO:DY:ed=brack	!	!LO:DY:ed=brack	!	!	!	!	!	!	!	!	!	!	!	!	!	!	!	!	!LO:TX:t=[[quarter]=152]	!
8DD-X	p	8A-X	p	8D-X	p	2r	.	2r	.	[2ddd-X	mf	2r	.	2r	.	8g-X'L	p	8e-y'L	p	8d-X'L	p	8a-X'L	p
8r	.	8r	.	8r	.	.	.	.	.	.	.	.	.	.	.	8g-'J	.	8e-'J	.	8d-'J	.	8a-'J	.
4r	.	4r	.	4r	.	.	.	.	.	.	.	.	.	.	.	8r	.	8r	.	8r	.	8r	.
.	.	.	.	.	.	.	.	.	.	.	.	.	.	.	.	8g-'	.	8e-'	.	8d-'	.	8a-'	.
=13	=13	=13	=13	=13	=13	=13	=13	=13	=13	=13	=13	=13	=13	=13	=13	=13	=13	=13	=13	=13	=13	=13	=13
2r	.	2r	.	2r	.	2r	.	2r	.	4ddd-]	.	2r	.	2r	.	8g-X'	.	8e-y'	.	8d-X'	.	8a-X'	.
.	.	.	.	.	.	.	.	.	.	.	.	.	.	.	.	8r'	.	8r'	.	8r'	.	8r'	.
.	.	.	.	.	.	.	.	.	.	((16ddd-XLL	.	.	.	.	.	8g-'L	.	8e-'L	.	8d-'L	.	8a-'L	.
.	.	.	.	.	.	.	.	.	.	16eee-X	.	.	.	.	.	.	.	.	.	.	.	.	.
.	.	.	.	.	.	.	.	.	.	16ggg-X	.	.	.	.	.	8g-'J	.	8e-'J	.	8d-'J	.	8a-'J	.
.	.	.	.	.	.	.	.	.	.	16eee-JJ	.	.	.	.	.	.	.	.	.	.	.	.	.
=14	=14	=14	=14	=14	=14	=14	=14	=14	=14	=14	=14	=14	=14	=14	=14	=14	=14	=14	=14	=14	=14	=14	=14
2r	.	2r	.	2r	.	2r	.	2r	.	8ddd-XL)	.	2r	.	2r	.	8r'	.	8r'	.	8r'	.	8r'	.
.	.	.	.	.	.	.	.	.	.	8bb-X'	.	.	.	.	.	8g-X'L	.	8e-y'L	.	8d-X'L	.	8a-X'L	.
.	.	.	.	.	.	.	.	.	.	8aa-X'	.	.	.	.	.	8g-'J	.	8e-'J	.	8d-'J	.	8a-'J	.
.	.	.	.	.	.	.	.	.	.	8ee-X'J)	.	.	.	.	.	8r'	.	8r'	.	8r'	.	8r'	.
=15	=15	=15	=15	=15	=15	=15	=15	=15	=15	=15	=15	=15	=15	=15	=15	=15	=15	=15	=15	=15	=15	=15	=15
2r	.	2r	.	2r	.	2r	.	2r	.	8aa-XL	.	2r	.	2r	.	8g-X'L	.	8e-y'L	.	8d-X'L	.	8a-X'L	.
.	.	.	.	.	.	.	.	.	.	((16aa-L	.	.	.	.	.	8g-'J	.	8e-'J	.	8d-'J	.	8a-'J	.
.	.	.	.	.	.	.	.	.	.	16ee-XJJ	.	.	.	.	.	.	.	.	.	.	.	.	.
.	.	.	.	.	.	.	.	.	.	8dd-XL)	.	.	.	.	.	8r'	.	8r'	.	8r'	.	8r'	.
.	.	.	.	.	.	.	.	.	.	8a-X'J)	.	.	.	.	.	8g-'	.	8B-y'	.	8e-'	.	8a-'	.
=16	=16	=16	=16	=16	=16	=16	=16	=16	=16	=16	=16	=16	=16	=16	=16	=16	=16	=16	=16	=16	=16	=16	=16
2r	.	2r	.	2r	.	2r	.	2r	.	(16b-XLL	.	2r	.	2r	.	8g-X	.	8B-y	.	8e-	.	8a-X	.
.	.	.	.	.	.	.	.	.	.	16a-X	.	.	.	.	.	.	.	.	.	.	.	.	.
.	.	.	.	.	.	.	.	.	.	16b-	.	.	.	.	.	8r'	.	8r'	.	8r'	.	8r'	.
.	.	.	.	.	.	.	.	.	.	16dd-XJJ	.	.	.	.	.	.	.	.	.	.	.	.	.
.	.	.	.	.	.	.	.	.	.	[4b-	.	.	.	.	.	8g-L	.	8B-L	.	8e-L	.	8a-L	.
.	.	.	.	.	.	.	.	.	.	.	.	.	.	.	.	8g-J	.	8B-J	.	8e-J	.	8a-J	.
=17	=17	=17	=17	=17	=17	=17	=17	=17	=17	=17	=17	=17	=17	=17	=17	=17	=17	=17	=17	=17	=17	=17	=17
2r	.	2r	.	2r	.	2r	.	2r	.	\8b-L])	<	2r	.	8r'	.	8r'	.	8r'	.	8r'	.	8r'	.
.	.	.	.	.	.	.	.	.	.	((16anL	.	.	.	8G-XL	p <	8g-XL	<	8BnL	<	8eXL	<	8anL	<
.	.	.	.	.	.	.	.	.	.	16bnJJ	.	.	.	.	.	.	.	.	.	.	.	.	.
.	.	.	.	.	.	.	.	.	.	8ddnL)	.	.	.	8G-J	.	8g-J	.	8BJ	.	8eJ	.	8aJ	.
.	.	.	.	.	.	.	.	.	.	8ee'J)	.	.	.	8r'	.	8r'	.	8r'	.	8r'	.	8r'	.
=18	=18	=18	=18	=18	=18	=18	=18	=18	=18	=18	=18	=18	=18	=18	=18	=18	=18	=18	=18	=18	=18	=18	=18
2r	.	2r	.	2r	.	2r	.	2r	.	8ggL	.	2r	.	8G-XL	.	8g-XL	.	8BnL	.	8eXL	.	8aL	.
.	.	.	.	.	.	.	.	.	.	((16ddL	.	.	.	8G-J	.	8g-J	.	8BJ	.	8eJ	.	8aJ	.
.	.	.	.	.	.	.	.	.	.	16eeJJ	.	.	.	.	.	.	.	.	.	.	.	.	.
.	.	.	.	.	.	.	.	.	.	8ggL)	.	.	.	8r'	.	8r'	.	8r'	.	8r'	.	8r'	.
.	.	.	.	.	.	.	.	.	.	8aa'J)	.	.	.	8G-	.	8g-	.	8B	.	8e	.	8a	.
=19	=19	=19	=19	=19	=19	=19	=19	=19	=19	=19	=19	=19	=19	=19	=19	=19	=19	=19	=19	=19	=19	=19	=19
2r	.	2r	.	2r	.	2r	.	2r	.	8cccL	.	2r	.	8G-X	.	8g-X	.	8Bn	.	8eX	.	8a	.
.	.	.	.	.	.	.	.	.	.	((16ggL	.	.	.	8r'	[	8r'	[	8r'	[	8r'	[	8r'	[
.	.	.	.	.	.	.	.	.	.	16aaJJ	.	.	.	.	.	.	.	.	.	.	.	.	.
.	.	.	.	.	.	.	.	.	.	8cccL)	.	.	.	8G-L	.	8g-L	.	8BL	.	8eL	.	8aL	.
.	.	.	.	.	.	.	.	.	.	8ddd'J)	[	.	.	8G-J	.	8g-J	.	8BJ	.	8eJ	.	8aJ	.
=20	=20	=20	=20	=20	=20	=20	=20	=20	=20	=20	=20	=20	=20	=20	=20	=20	=20	=20	=20	=20	=20	=20	=20
2r	.	2r	.	2r	.	2r	.	2r	.	(16fffLL	.	2r	.	8r'	.	8r'	.	8r'	.	8r'	.	8r'	.
.	.	.	.	.	.	.	.	.	.	16eee	.	.	.	.	.	.	.	.	.	.	.	.	.
.	.	.	.	.	.	.	.	.	.	16fff	.	.	.	8FL	>	8fL	>	8cL	>	8e-XL	>	8b-L	>
.	.	.	.	.	.	.	.	.	.	16eeeJJ)	.	.	.	.	.	.	.	.	.	.	.	.	.
.	.	.	.	.	.	.	.	.	.	[4eee-X	.	.	.	8FJ	.	8fJ	.	8cJ	.	8e-J	.	8b-J	.
.	.	.	.	.	.	.	.	.	.	.	.	.	.	8r'	.	8r'	.	8r'	.	8r'	.	8r'	.
=21	=21	=21	=21	=21	=21	=21	=21	=21	=21	=21	=21	=21	=21	=21	=21	=21	=21	=21	=21	=21	=21	=21	=21
2r	.	2r	.	2r	.	4r	.	4r	.	8eee-L]	.	2r	.	8FL	.	8fL	.	8cL	.	8e-L	.	8b-L	.
.	.	.	.	.	.	.	.	.	.	(8aaa-X	.	.	.	8FJ	.	8fJ	.	8cJ	.	8e-J	.	8b-J	.
.	.	.	.	.	.	8r	.	8r	.	8fff)	.	.	.	4r	]	4r	]	4r	]	4r	]	4r	]
.	.	.	.	.	.	(8a-X	mp	(8aa-X	mp	8eee-XJ	.	.	.	.	.	.	.	.	.	.	.	.	.
=22	=22	=22	=22	=22	=22	=22	=22	=22	=22	=22	=22	=22	=22	=22	=22	=22	=22	=22	=22	=22	=22	=22	=22
2r	.	2r	.	2r	.	8fL)	.	8ffL)	.	8dddnL	.	2r	.	2r	.	2r	.	2r	.	2r	.	2r	.
.	.	.	.	.	.	((8e-X	.	((8ee-X	.	((8fff	.	.	.	.	.	.	.	.	.	.	.	.	.
.	.	.	.	.	.	8dn)	.	8ddn)	.	8ccc)	.	.	.	.	.	.	.	.	.	.	.	.	.
.	.	.	.	.	.	8f'J)	.	8ff'J)	.	8bbn'J)	.	.	.	.	.	.	.	.	.	.	.	.	.
*	*	*	*	*	*	*	*	*	*	*	*	*	*	*clefF4	*	*clefF4	*	*	*	*	*	*	*
=23	=23	=23	=23	=23	=23	=23	=23	=23	=23	=23	=23	=23	=23	=23	=23	=23	=23	=23	=23	=23	=23	=23	=23
2r	.	4r	.	2r	.	(8cL	.	(8ccL	.	4.bb-X	.	2r	.	4r	.	4r	.	2r	.	2r	.	2r	.
.	.	.	.	.	.	8d-XJ)	.	8dd-XJ)	.	.	.	.	.	.	.	.	.	.	.	.	.	.	.
!	!	!LO:TX:a:t=pizz.	!	!	!	!	!	!	!	!	!	!	!	!	!	!	!	!	!	!	!	!	!
.	.	8E-X	mf	.	.	8r	.	8r	.	.	.	.	.	8E-X	mf	8E-X	mf	.	.	.	.	.	.
.	.	8r	.	.	.	8c	.	8cc	.	((8bb-	>	.	.	8r	.	8r	.	.	.	.	.	.	.
=24	=24	=24	=24	=24	=24	=24	=24	=24	=24	=24	=24	=24	=24	=24	=24	=24	=24	=24	=24	=24	=24	=24	=24
2r	.	8F	.	2r	.	(8B-XL	>	(8b-XL	>	4.aa-X)	.	2r	.	8F	.	8F	.	2r	.	2r	.	2r	.
.	.	8r	.	.	.	8cJ)	.	8ccJ)	.	.	.	.	.	8r	.	8r	.	.	.	.	.	.	.
.	.	8G-X	.	.	.	8r	.	8r	.	.	.	.	.	8G-X	.	8G-X	.	.	.	.	.	.	.
.	.	8r	.	.	.	8B-	]	8b-	]	8aa-')	]	.	.	8r	.	8r	.	.	.	.	.	.	.
*	*	*	*	*	*	*	*	*	*	*	*	*	*	*clefC4	*	*clefC4	*	*	*	*	*	*	*
=25	=25	=25	=25	=25	=25	=25	=25	=25	=25	=25	=25	=25	=25	=25	=25	=25	=25	=25	=25	=25	=25	=25	=25
*	*	*grp:B	*	*	*	*	*	*	*	*	*	*	*	*	*	*	*	*	*	*	*	*	*
!	!	!LO:TX:a:t=arco	!	!	!	!	!	!	!	!	!	!	!	!	!	!	!	!	!	!	!	!	!
2r	.	(4d-X	p	2r	.	8A-X	p	8a-X	p	[2ddd-X	mf	8Ree	pp	8d-X	p	8g-XL	p	8e-yL	p	8d-XL	p	8a-XL	p
.	.	.	.	.	.	8r	.	8r	.	.	.	8r	.	8r	.	8g-J	.	8e-J	.	8d-J	.	8a-J	.
.	.	4B-X	.	.	.	4r	.	4r	.	.	.	8r	.	4r	.	8r	.	8r	.	8r	.	8r	.
.	.	.	.	.	.	.	.	.	.	.	.	8Ree	.	.	.	8g-	.	8e-	.	8d-	.	8a-	.
=26	=26	=26	=26	=26	=26	=26	=26	=26	=26	=26	=26	=26	=26	=26	=26	=26	=26	=26	=26	=26	=26	=26	=26
2r	.	4A-X	.	2r	.	2r	.	2r	.	4ddd-]	.	8Ree	.	2r	.	8g-X	.	8e-y	.	8d-X	.	8a-X	.
.	.	.	.	.	.	.	.	.	.	.	.	8r	.	.	.	8r'	.	8r'	.	8r'	.	8r'	.
.	.	4G-X)	.	.	.	.	.	.	.	((16ddd-XLL	.	4r	.	.	.	8g-L	.	8e-L	.	8d-L	.	8a-L	.
.	.	.	.	.	.	.	.	.	.	16eee-X	.	.	.	.	.	.	.	.	.	.	.	.	.
.	.	.	.	.	.	.	.	.	.	16ggg-X	.	.	.	.	.	8g-J	.	8e-J	.	8d-J	.	8a-J	.
.	.	.	.	.	.	.	.	.	.	16eee-JJ	.	.	.	.	.	.	.	.	.	.	.	.	.
=27	=27	=27	=27	=27	=27	=27	=27	=27	=27	=27	=27	=27	=27	=27	=27	=27	=27	=27	=27	=27	=27	=27	=27
2r	.	(4E-X	.	2r	.	2r	.	2r	.	8ddd-X'L)	.	2r	.	2r	.	8r'	.	8r'	.	8r'	.	8r'	.
.	.	.	.	.	.	.	.	.	.	8bb-X'	.	.	.	.	.	8g-XL	.	8e-yL	.	8d-XL	.	8a-XL	.
.	.	4D-X)	.	.	.	.	.	.	.	8aa-X'	.	.	.	.	.	8g-J	.	8e-J	.	8d-J	.	8a-J	.
.	.	.	.	.	.	.	.	.	.	8ee-X'J)	.	.	.	.	.	8r'	.	8r'	.	8r'	.	8r'	.
=	=	=	=	=	=	=	=	=	=	=	=	=	=	=	=	=	=	=	=	=	=	=	=
*-	*-	*-	*-	*-	*-	*-	*-	*-	*-	*-	*-	*-	*-	*-	*-	*-	*-	*-	*-	*-	*-	*-	*-
!!!system-decoration: [(s1,s2,s3,s4,s5)]s6[(s7,s8,s9,s10,s11,s12)]
!!!EED: Claudio de Freitas
!!!EEV: 2021/09/02
!!!EED2: Daniel Wright
!!!Suter_Work_ID: Hin-70
!!!Suter_Example_Number: 649
!!!Suter_Example_ID: Hin-70/62/[1]1-16
!!!Premiere_Location: Amsterdam,Netherlands
!!!Other_Tsigs: none
!!!Full_Unit_Duration: 10:21
!!!First_Publication_Year: 1939
!!!First_Public_Performance_Year: 1940
!!!Example_Total_Measures: 16
!!!Example_Timestamp_Duration: 13
!!!Example_Start_Tsig_Type: simple duple
!!!Example_Start_Tsig_Mean_Beat_Rate: 152
!!!Example_Start_Tsig_Beat_Rate: 152
!!!Example_Start_Tsig_Beat: quarter
!!!Example_Start_Tsig: 2/4
!!!Example_Start_Timestamp: 0:09
!!!Example_Start_Tempo_Expression: [Lebhaft]
!!!Example_Start_Notated_Beat_Rate: [152]
!!!Example_Start_Notated_Beat: [quarter]
!!!Example_Start_Measure: 12
!!!Example_Metadata_Validated: Y
!!!Example_End_Timestamp: 0:22
!!!Example_End_Measure: 27
!!!Example_Dataset: T
!!!Editorial_Comments: Example Start Notated Beat and Example Start Notated Beat Rate [quarter=152] based on most recent notated beat rate (SWFU, m. 1). Example Start Tempo Expression [Lebhaft] based on most recent notated tempo expression (SWFU, m. 1).
!!!Death_Place: Frankfurt,Germany
!!!Death_Date: 28-Dec-1963
!!!Changing_Tsig: no
!!!Birth_Place: Hanau,Germany
!!!Birth_Date: 16-Nov-1895
!!!Audio_Example_Quarter_Note_Tempo:
!!!Audio_Example_Duration:
!!!EEV2: 2022/03/03
